X:1
T:Title
L:1/8
Q:1/4=90
M:2/4
K:Bb
V:1 treble nm="Grand Piano"
V:1
 DD/D/ GG | BB/B/ AA | GG FE | G4 | DD GG | BB AA/A/ | GG FE | G4 | AB/B/ cc | B4 | GG BB | A4 | %12
w: ????~???? * * * *||||||||||||
 AB/B/ cc | dc BA | GG BB | A4 | FG FE | G4 | FG FE |[M:3/8] D3 |[M:1/8] B |[M:2/4] BG/G/ AB | %22
w: ||||||||||
 A3 A | AF GA/A/ | G3 B | BG/G/ AB | A3 A | AF GA/A/ | G3 G/G/ | GE/E/ FG | FE DC | DE FG | %32
w: ||||||||||
 FE D2 |] %33
w: |

